!!!COM: Emmanuel Chabrier
!!!CNT: Francais
!!!TXO: Francais
!!!OTL: "Les cigales"
!!!LYR: Ge/rard
!!!OPR: 
!!!OPS: 
!!!ONM:  
!!!ENC: Emily Thomas
!!!YOR: CD Sheet Music French Art Songs, The Ultimate Collection
!!!YOR: CD Sheet Music, LLC 2003
!!!ODT: 1889/
!!NB: Vocal melody and text encoded.
**kern	**silbe
=1	=1
*clefG2	*
*k[]	*
*M4/4	*
*MM[Tre\s anime/]	*
1r	.
=2	=2
1r	.
=3	=3
1r	.
=4	=4
2r	.
4r	.
{8e	{Le
8e	so-
=5	=5
4.f	-leil
8f	est
4g	droit
8g	sur
8g	la
=6	=6
2.a	sen-
4a}	-te,}
=7	=7
{4f	{L'om-
8f	-bre
8f	bleu-
4.g	-it
8g	sous
=8	=8
8a	les
8a	fig-
2.a}	-uiers,}
=9	=9
8r	.
{8a	{Ces
[4b-	cris,
8b-]	|
8b-	au
[4ee	loin
=10	=10
8ee]	|
8a	mul-
8b	-ti-
8b	-pli-
4ee}	-e/s,}
{8ffn	{C'est
8ee	Mi-
=11	=11
4dd	-di,
8ee	c'est
8dd	Mi-
4cc	-di
4dd	qui
=12	=12
2b	chan-
4cc}	-te!}
8r	.
{8f#	{Sous
=13	=13
2g	l'as-
4e	-tre
8f#	qui
8g	con-
=14	=14
4ee	-duit
4dd	le
4g}	choeur,}
{12f#	{Les
12g	|
12a	chan-
=15	=15
2g	-teu-
8e	-ses
8f	dis-
8f#	-si-
8g	-me-
=16	=16
4ee	-le/-
4dd	|
[4g	-es
8g]}	|}
8r	.
=17	=17
{4cc	{Jet-
8cc	-tent
8cc	leurs
8b	rau-
8b	-ques
8b	u-
8b	-lu-
=18	=18
4b	-le/-
8a}	-es}
{8a	{De
8b	quell
8cc	in-
8dd	-fa-
8ee	-ti-
=19	=19
4ee	-ga-
2cc	|
4dd	-ble
=20	=20
[2ee	Coeur!Ö
4ee]}	|}
{8b	{Les
8cc#	ci-
=21	=21
*k[f#c#g#]	*
4b	-ga-
[4a	-les,
8a]}	|}
{8a	{ces
8ee	best-
8cc#	-i-
=22	=22
4cc#	-o-
[4b	-les,
8b]}	|}
8r	.
{8b	{Ont
8cc#	plus
=23	=23
4b	d'a^-
[4a	-me-
8a]	|
8a	que
8ee	les
8cc#	vi-
=24	=24
4cc#	-o-
[4b	-les,
8b]}	|}
8r	.
{8b	{Les
8cc#	ci-
=25	=25
4g#	-ga-
[4a	-les,
8a]	|
8b	les
8cc#	ci-
8dd	-ga-
=26	=26
8ee	-lons
8r	.
8a	Chant-
8e#	-ent
[2f#	mieux
=27	=27
8f#]}	|}
8r	.
{8a	{que
8ff#	les
8g#	vi-
8r	.
8g#	-o-
8r	.
=28	=28
[2.a	-lons!
8a]}	|}
8r	.
=29	=29
1r	.
=30	=30
1r	.
=31	=31
1r	.
=32	=32
1r	.
=33	=33
1r	.
=34	=34
1r	.
=35	=35
1r	.
=36	=36
*k[]	*
8r	.
{8fn	S'en
8f	don-
8f	-nent-
8g	-el-
8g	-les
8g	les
8g	ci-
=37	=37
2.a	-ga-
4a}	-les,}
=38	=38
4r	.
{8f	Sur
8f	les
4g	tas
8g	de
8g	pous-
=39	=39
8a	-sie\-
8a	-re
2.a}	gris,}
=40	=40
4r	.
{8a	Sous
8b	les
8b	o-
8ee	-li-
4ee	-viers
=41	=41
8a	ra-
8b	-bou-
2ee}	-gris}
{8ffn	{E/-
8ee	-toi-
=42	=42
4dd	-le/s
8ee	de
8dd	fleu-
4cc	-ret-
4dd	-tes
=43	=43
2b	pa]-
4cc}	-les;}
8r	.
{8f#	{Et
=44	=44
2g	gri-
4e	-ses
8f#	de
8g	chan-
=45	=45
4ee	-ter
4dd	ain-
4g}	-si,}
{12f#	{El-
12g	|
12a	-les
=46	=46
2g	font
8e	leur
8f	mu-
8f#	-si-
8g	-que
=47	=47
4ee	fol-
4dd	|
[4g	-le;
8g]}	|}
8r	.
=48	=48
4r	.
{8g	{Et
8g	tou-
4g#	-jours
8g#	leur
8cc	chan-
=49	=49
8cc	-son
8b	s'en-
2b	-vo-
8a}	-le}
{8a	{Des
=50	=50
8b	touf
8cc	fes
8dd	du
8ee	ga-
4cc	-zon
4dd	rous-
=51	=51
[2ee	-si!
4ee]}	|}
{8b	{Les
8cc#	ci-
=52	=52
*k[f#c#g#]	*
4b	-ga-
[4a	-les,
8a]}	|}
{8a	{ces
8ee	best-
8cc#	-i-
=53	=53
4cc#	-o-
[4b	-les,
8b]}	|}
8r	.
{8b	{Ont
8cc#	plus
=54	=54
4b	d'a\-
[4a	-me
8a]	|
8a	que
8ee	les
8cc#	vi-
=55	=55
4cc#	-o-
[4b	-les,
8b]}	|}
8r	.
{8b	{Les
8cc#	ci-
=56	=56
4g#	-ga-
[4a	-les,
8a]	|
8b	les
8cc#	ci-
8dd	-ga-
=57	=57
8ee}	-lons,}
8r	.
{8a	Chan-
8e#	-tent
[2f#	mieux
=58	=58
8f#]}	|}
8r	.
{8a	{que
8ff#	les
8g#	vi-
8r	.
8g#	-o-
8r	.
=59	=59
[2.a	-lons!
8a]}	|}
8r	.
=60	=60
1r	.
=61	=61
1r	.
=62	=62
1r	.
=63	=63
1r	.
=64	=64
1r	.
=65	=65
1r	.
=66	=66
2r	.
4r	.
8r	.
{8e	{Aux
=67	=67
*k[]	*
4fn	rus-
8f	-tres
8f	e/-
4g	-pars
8g	dans
8g	le
=68	=68
2.a	chau-
4a}	-me,}
=69	=69
4r	.
{8f	{Le
8f	grand
4g	as-
8g	-tre
8g	tor-
=70	=70
8a	-ren-
8a	-ti-
2.a}	-el,}
=71	=71
8r	.
{8a	A
[4b	lar-
8b]	|
8b	-ges
[4ee	flots,
=72	=72
8ee]	|
8a	du
8b	haut
8b	du
8ee}	ciel,}
8r	.
{[4a	{Ver-
=73	=73
8a]	|
8a	-se
8a	le
8a-	som-
4g	-meil
12f#	et
12g	|
12an	son
=74	=74
2g	bau-
[4c	-me;
8c]}	|}
8r	.
=75	=75
4r	.
{8g	{Tout
8g	est
[2g	mort,
=76	=76
8g]}	|}
8r	.
8r	.
{8g	{rien
8g	ne
8g	bru-
8g	-it
8g	plus
=77	=77
4.g	Qu'el-
8g}	-les}
8r	.
{8g	{tou-
[4g	-jours,
=78	=78
8g]	|
8g	les
8g	for-
8g	-ce-
4.g	-ne/-
8g}	-es,}
=79	=79
{4g	{En-
8g	-tre
8g	les
8g#	no-
8g#	-tes
8g#	e/-
8g#	-gre-
=80	=80
[2a	-ne/-
4a]}	-es}
{4a	{De
=81	=81
4a	quell-
8f#	-que
8d	loin-
4c	-tain
8d	an-
8f#	-ge-
=82	=82
[2e	-lus!Ö
4e]}	|}
{8b	{Les
8cc#	ci-
=83	=83
4b	-ga-
[4a	-les,
8a]	|
8a	ces
8ee	best-
8cc#	-i-
=84	=84
4cc#	-o-
[4b	-les,
8b]}	|}
8r	.
{8b	{Ont
8cc#	plus
=85	=85
4b	d'a\-
[4a	-me
8a]	|
8a	que
8ee	les
8cc#	vi-
=86	=86
4cc#	-o-
[4b	-les,
8b]}	|}
8r	.
{8b	{Les
8cc#	ci-
=87	=87
4g#	-ga-
[4a	-les,
8a]	|
8b	les
8cc#	ci-
8dd	-ga-
=88	=88
8ee}	-lons}
8r	.
4r	.
{4a	Chant-
4e#	-ent,
=89	=89
[1f#	mieux
=90	=90
8f#]}	|}
8r	.
{8a	{que
8ff#	les
4g#	vi-
4g#	-o-
=91	=91
[2a	-lons!
8a]}	|}
8r	.
==	==
*-	*-
